X:1
T:Gallaway Jim. JBut.502
T:Gallaway Jim. JBut.502
T:Galloway Tom,aka. JBut.502
T:A Quick Step
C:A Quick Step
L:1/8
Q:3/8=120
M:6/8
K:G
V:1 treble 
V:1
 G | c>de ede | cAA A2 G | c>de edc | gdd d2 e | cde e>de | cAA A2 c | GAG AGA | cde d2 :: e | %10
 gag ede | cAA A2 G |{ef} gec gec | edd d2 g | eag ede | cAG A2 c | G2 G AGA | cde d2 :| %18

